@v0 = { 10 9 8 7 6 5 4 3 2 }
@v1 = { 15 15 14 14 13 13 12 12 11 11 10 10 9 9 8 8 7 7 6 6 }

ABCDE t150

A l8 o4 @02 @v0
A [c d e f @v1 g4 @v0 a16 b16 >c c d e f @v1 g4 @v0 a16 b16 >c<<]2
B l8 o3 @01 @v0
B [c d e f @v1 g4 @v0 a16 b16 >c c d e f @v1 g4 @v0 a16 b16 >c<<]2

C l4 o2 q6
C [c e g8 g8 a16 b16 >c8 c e g8 g8 a16 b16 >c8<<]4
